icons/src/scalable/default/devices/media-tape-symbolic.svg

<svg xmlns="http://www.w3.org/2000/svg" viewBox="0 0 16 16">
  <defs id="defs3051">
    <style type="text/css" id="current-color-scheme">
      .ColorScheme-Text {
        color:#4d4d4d;
      }
      </style>
  </defs>
 <path 
     style="fill:#bebebe;fill-opacity:1;stroke:none" 
     class="ColorScheme-Text"
     d="M 3 2.0039062 C 1 2.0039062 1 4.0039062 1 4.0039062 L 1 12.003906 C 1 12.003906 1 14.003906 3 14.003906 L 13 14.003906 C 13 14.003906 15 14.003906 15 12.003906 L 15 4.0039062 C 15 2.0039062 13 2.0039062 13 2.0039062 L 3 2.0039062 z M 5 6.0039062 C 6.10457 6.0039062 7 6.8993363 7 8.0039062 C 7 8.3688762 6.88951 8.7093662 6.71875 9.0039062 L 9.28125 9.0039062 C 9.11049 8.7093662 9 8.3688762 9 8.0039062 C 9 6.8993363 9.89543 6.0039062 11 6.0039062 C 12.10457 6.0039062 13 6.8993363 13 8.0039062 C 13 9.1084762 12.10457 10.003906 11 10.003906 L 5 10.003906 C 3.89543 10.003906 3 9.1084762 3 8.0039062 C 3 6.8993363 3.89543 6.0039062 5 6.0039062 z M 5 7.0039062 C 4.44772 7.0039062 4 7.4516263 4 8.0039062 C 4 8.5561862 4.44772 9.0039062 5 9.0039062 C 5.55228 9.0039062 6 8.5561862 6 8.0039062 C 6 7.4516263 5.55228 7.0039062 5 7.0039062 z M 11 7.0039062 C 10.44772 7.0039062 10 7.4516263 10 8.0039062 C 10 8.5561862 10.44772 9.0039062 11 9.0039062 C 11.55228 9.0039062 12 8.5561862 12 8.0039062 C 12 7.4516263 11.55228 7.0039062 11 7.0039062 z "
     />
</svg>

<svg version="1.1" viewBox="0 0 16 16" xmlns="http://www.w3.org/2000/svg">
 <path d="m3 2.0039c-2 0-2 2-2 2v8s0 2 2 2h10s2 0 2-2v-8c0-2-2-2-2-2h-10zm2 4c1.1046 0 2 0.89543 2 2 0 0.36497-0.11049 0.70546-0.28125 1h2.5625c-0.17076-0.29454-0.28125-0.63503-0.28125-1 0-1.1046 0.89543-2 2-2s2 0.89543 2 2c0 1.1046-0.89543 2-2 2h-6c-1.1046 0-2-0.89543-2-2 0-1.1046 0.89543-2 2-2zm0 1c-0.55228 0-1 0.44772-1 1 0 0.55228 0.44772 1 1 1s1-0.44772 1-1c0-0.55228-0.44772-1-1-1zm6 0c-0.55228 0-1 0.44772-1 1 0 0.55228 0.44772 1 1 1s1-0.44772 1-1c0-0.55228-0.44772-1-1-1z" fill="#bebebe"/>
</svg>
